!!!OTL: Wol auf, ihr frommen Deutschen!
!!!ARE: Europa, Mitteleuropa, Deutschland
!!!SCT: A0400
!!!TXL: @@DE
!!!YEM: Copyright 1995, estate of Helmut Schaffrath.
**kern	**text
!! Mixed meters:  4/2; 6/2
*M4/2	*
*met(c|)	*
*clefC4	*
*k[]	*
*a:phr	*
!LO:TX:a:t=phryg. (a moll mit Quintſchl.)	!
1ryy	.
{2A	Wol
=1	=1
2c	auf,
2A	ir
2c	frommen
2d	.
=2	=2
*M6/2	*
1e	Deut-
1e	-ſchen,
2r}	.
{2e	ein
=3	=3
*lig	*
2e	ler-
2.d	.
*Xlig	*
4c	-men
1c	hebt
2B	ſich
=4	=4
*M4/2	*
1A	an,}
{1r	.
2A	gilt
=1	=1
2c	euch,
2A	man
2c	wil
2d	euch
=2	=2
*M6/2	*
1e	teu-
1e	-ſchen,
2r}	.
{2e	und
=3	=3
*lig	*
2e	ler-
2.d	.
*Xlig	*
4c	-nen
1c	Welſch
2B	verſtan;
=4	=4
*M4/2	*
1A	}
2r}	.
{2A	Der
=5	=5
*M6/2	*
1c	bapſt
2c	und
1B	kei-
2G	-ſer
=6	=6
1A	ʒür-
2G	-nen
!LO:TX:a:t=+	!
1E	ſehr
2C	wi-
=7	=7
2G	-der
2A/	got
2B	ſelbſt
2G	und
2A	ſei-
2B	-ne
=8	=8
*M4/2	*
1c	lehr,
2r}	.
{2e	wer
=9	=9
2e	hat
2e	in
2d	ur-
2c	-ſach
=10	=10
*M6/2	*
1B	ge-
2A}	-ben?
!LO:TX:a:t=++	!
{2.c	ge-
4B	.
4A/	.
4G	.
=11	=11
*M4/2	*
2A/	.
2G	.
!LO:SIC:o:2f#:v	!
1F	.
=12	=12
1E/ll}	-ben?
==	==
!!!GTL: Einige historisch-politische Lieder
!!!AGN: Romanze, Ballade, Lied, religioeses Lied
!! Einzeldruck 1546.
!!!ONB: ESAC (Essen Associative Code) Database: ALTDEU
!!!AMT: irregular
!!!AIN: vox
!!!EED: Helmut Schaffrath
!!!EEV: 1.0
!!@@COMMENT:"Das Original der Melodie hat bei + eine störende Minima-Pause, bei ++ eine Hemiole (schwarze Note <<>> ohnePunkt).
!!@@END:
!!!RDF**kern: l = terminal long
!!!AMD: Phrygian
!!!URL-scan: https://rosdok.uni-rostock.de/mcrviewer/recordIdentifier/rosdok_ppn738218359/iview2/phys_0571.iview2?x=104.18348948774928&y=2810.341826842632&scale=0.7083010262257697&rotation=0&layout=singlePageLayout
!!!ENC: Anna Maria Matuszewska
!!!EEV: 2024/15/03
*-	*-
